icons/bhi_organize.svg

<svg xmlns="http://www.w3.org/2000/svg" viewBox="0 0 512 512" enable-background="new 0 0 512 512"><path fill-rule="evenodd" clip-rule="evenodd" d="M302.2 325.5h-93v69.7h-69.7l116.2 116.2 116.3-116.2h-69.7v-69.7zm209.3-69.8l-116.3-116.2v69.7h-69.7v93h69.7v69.8l116.3-116.3zm-325.5-46.5h-69.7v-69.7l-116.3 116.2 116.2 116.3v-69.7h69.8v-93.1zm23.2-23.2h93v-69.7h69.8l-116.3-116.3-116.2 116.2h69.7v69.8z"/></svg>

<?xml version="1.0" encoding="utf-8"?>
<!-- Generator: Adobe Illustrator 19.2.0, SVG Export Plug-In . SVG Version: 6.00 Build 0)  -->
<svg version="1.1" id="Layer_1" xmlns="http://www.w3.org/2000/svg" xmlns:xlink="http://www.w3.org/1999/xlink" x="0px" y="0px"
	 viewBox="0 0 512 512" enable-background="new 0 0 512 512" xml:space="preserve">
<path fill-rule="evenodd" clip-rule="evenodd" d="M302.2,325.5h-93v69.7h-69.7l116.2,116.2L372,395.2h-69.7V325.5z M511.5,255.7
	L395.2,139.5v69.7h-69.7v93h69.7V372L511.5,255.7z M186,209.2h-69.7v-69.7L0,255.7L116.2,372v-69.7H186V209.2z M209.2,186h93v-69.7
	H372L255.7,0L139.5,116.2h69.7V186z"/>
</svg>
